!! from "Examples of Gregorian Chant & Works ...", compiled
!! by Gustave Soderlund, Appleton-Century-Crofts (New York), 1937; p. 20
**kern	**kern
*M4/2	*M4/2
=1	=1
0r	2.g
.	4a
.	4b
.	4cc
.	[2dd
=2	=2
1r	2dd]
.	2b
2.c	1cc
4d	.
=3	=3
4e	2.b
4f	.
1g	.
.	4cc
.	4dd
.	4b
2e	[2ee
=4	=4
1f	2ee]
.	2dd
2.e	2cc
.	4b
4f	4a
=5	=5
4g	4b
4e	4g
1a	4cc
.	4dd
.	4ee
.	4ff
2g	[2ee
=6	=6
2f	4ee]
.	4dd
4e	1dd
4d	.
1e	.
.	2cc#
=7	=7
1d	0dd
2r	.
2g	.
=8	=8
2e	2r
2d	2dd
2g	2b
4f	2a
4e	.
=9	=9
4d	2dd
4e	.
2.f	4c
.	4b
.	4a
4e	4b
4c	2cc
4d	.
=10	=10
4e	4g
4f	4a
2g	4b
.	4cc
4d	4dd
4e	4cc
4f	4a
4g	4b
=11	=11
4a	4cc
4g	4b
1g	4b
.	8a
.	8g
.	2a
2f#	2a
=12	=12
1g	2g
.	2dd
2r	2b
2d	2a
=13	=13
2B	2dd
2A	4cc
.	4b
2d	1a
4c	.
4B	.
=14	=14
1A	2r
.	2cc
2r	2a
2c	2g
=15	=15
2A	2cc
2G	4b
.	4a
2c	2.g
4B	.
4A	4a
=16	=16
2G	1b
2g	.
2e	2r
2d	2dd
=17	=17
2g	2b
4f	2a
4e	.
2d	2dd
[2f	4cc
.	4b
=18	=18
4f]	2a
4e	.
4c	2.ee
4d	.
2.e	.
.	4dd
.	4cc
4d	4b
=19	=19
4c	4a
4B	4g
4B	1g
8A	.
8G	.
2A	.
2A	2f#
=20	=20
0G	0g
==	==
*-	*-
